!!!OTL: De klenge M&auml;nnchen (192b), S. 420
!!!id: T0372
**kern
*clefG2
*k[f#]
*D:
{8a
=1
16a
16a
16a
16a
16a
16a
=2
8b
8a}
8r
=3
{4a
8b
=4
4a}
=5
{8dd
=6
8dd
16dd
16dd
16dd
16dd
=7
8dd
8f#}
=8
{8f#
=9
8dd
8f#
8f#
=10
8b
8b
16b
16b
=11
8a
8g
8f#
=12
8g
8f#
8e
=13
4d}
==
*-
!!!minrhy: 16
!!!meters: 3/8 ]  ZZ[4
!!!cut: De klenge M&auml;nnchen (192b), S. 420
!!!reg: Luxemburg
!!!trd: Singendes Volk, Esch-Alzette, 1937 posth.
!!!rhy1: X_  XXXXXX  X_X_0_
!!!rhy2: X__X_  X__
!!!key: T0372  16  D 3/8 ]  ZZ[4
!!!mod: SECHSTONSKALA DUR ?]  AMBITUS[7b
!!!kad: 5532
!!!akz: 56_55_+1+1_+16542_
!!!fot: 'a__b__as"c__
!!!for: 'a__b__c__d__
!!!fok: '-__-__-__^d_
!! PHRAS[VORWIEGEND AUFTAKTIG]
!!!fkt: Hochzeits-, Ehestandslied
!!!bem: Junglinster, fff Mutter und hhh Vater des Verfassers, um 1890
!! THILL; Mathias
!! PR[45] 2K[0] 2G[15] 3K[0] 3G[0] 4A[5] 4Ü[0] 5A[0] 6K[0] 6G[5]
!! 7K[0] 7G[0] 8A[0] MEHR[0] SI[25] ABS[20] SR[15] SP[10]
!! ST[5] 2k[0] 2g[25] 3k[0] 3g[0] 4d[5] 4ü[0] 5d[0] 6k[0] 6g[0]
!! 7k[0] 7g[0] 8d[0] mehr[0] si[30] dm[-5] sr[25] sp[5]
!! 1F[27] 2F[50] 3F[23] 4F[0] LF[0] 2P[0] 3P[0] 4P[0] TRI[0] DF[3] AB[22]
!! TF[0] U3K[0] U3[0] U4[0] U4Ü[0] U5[29] U6K[0] U6[33] U7K[0] U7[0]
!! N1[14] N2K[0] N2[10] N3K[0] N3[14] N4[0] N4Ü[0] N5[0] N6K[0] N6[0]
!!!n7k: 0] N7[0] O1[0] O2K[0] O2[0] O3K[0] O3[0] HÖ[0
!!!RNB: symbol: &auml;      = a umlaut  (UTF-8: Å„)
